data/images/track-icon.svg

<?xml version="1.0" encoding="UTF-8" standalone="no"?>
<svg width="80px" height="80px" version="1.1" xmlns="http://www.w3.org/2000/svg" xmlns:xlink="http://www.w3.org/1999/xlink" xmlns:sketch="http://www.bohemiancoding.com/sketch/ns">
    <title>track-placeholder-grid</title>
    <description>Created with Sketch (http://www.bohemiancoding.com/sketch)</description>
    <defs></defs>
    <g id="Page 1" fill="rgb(223,223,223)" fill-rule="evenodd">
        <path d="M0,0 L80,0 L80,80 L0,80 Z M16.875,15.9537457 C15.7162501,17.6713457 15.575625,19.9684456 16.485,22.2560456 C17.29875,24.300446 18.87375,26.2080454 20.9343749,27.6330454 C23.0231251,29.0789457 25.3874999,29.8769459 27.5925002,29.8769459 C28.0031249,29.8769459 28.3912504,29.8389459 28.7737504,29.7857461 C28.7681249,33.8346462 28.7606254,37.8778449 28.7493749,41.911547 C28.7381249,46.8477471 28.7287499,51.7725466 28.7287499,56.6897468 C28.7287499,57.5618467 29.2893749,58.3332468 30.1124999,58.5897468 L57.8568758,67.2727463 C58.4587507,67.4589463 59.1018758,67.3506463 59.6025008,66.9744463 C60.1012507,66.6001462 60.3975008,66.0054463 60.3975008,65.3746463 L60.3975008,64.4037463 C60.4087508,64.3372463 60.4087508,64.2707463 60.4087508,64.2004463 L60.4087508,33.9334457 C60.9262508,32.7060457 60.9450008,31.2582456 60.5531258,29.7781457 C60.4612508,29.1549458 60.2962508,28.5241457 60.0450008,27.8914457 C59.2312507,25.8470458 57.6506256,23.9375459 55.5937506,22.5144459 C53.5050009,21.0666459 51.1368757,20.2705459 48.9375007,20.2705459 C46.5149993,20.2705459 44.5406252,21.2148458 43.3818752,22.9324459 C42.2268748,24.650046 42.0825005,26.9471453 42.9918748,29.2328454 C43.8037509,31.2772449 45.3843749,33.1886459 47.4450016,34.6117452 C49.5300007,36.0576464 51.8981266,36.8537457 54.1012502,36.8537457 C54.3318737,36.8537457 54.5550013,36.838545 54.7743738,36.8195464 C54.9356246,36.8423466 55.0968754,36.8708454 55.258125,36.8803447 L55.258125,56.9747451 L33.93,50.301945 L33.93,26.3657458 C35.0531249,23.7000456 33.9131249,20.0083456 31.0199999,17.1545457 C30.9168749,17.0519457 30.8099999,16.9626457 30.7049999,16.8657457 C30.5793749,16.7479457 30.4518749,16.6320457 30.3206249,16.5180457 C30.1949999,16.4116457 30.0599999,16.3109457 29.9343749,16.2083457 C29.6531249,15.9822457 29.3906249,15.7428457 29.0887499,15.5357457 C26.9943751,14.0879457 24.6318749,13.2918457 22.4268749,13.2918457 C20.0043751,13.2918457 18.031875,14.2361458 16.875,15.9537457 Z M16.875,15.9537457" id="Rectangle 1" fill="rgb(180,194,217)"></path>
    </g>
</svg>

<?xml version="1.0" encoding="UTF-8" standalone="no"?>
<!-- Created with Inkscape (http://www.inkscape.org/) -->

<svg
   xmlns:dc="http://purl.org/dc/elements/1.1/"
   xmlns:cc="http://creativecommons.org/ns#"
   xmlns:rdf="http://www.w3.org/1999/02/22-rdf-syntax-ns#"
   xmlns:svg="http://www.w3.org/2000/svg"
   xmlns="http://www.w3.org/2000/svg"
   xmlns:sodipodi="http://sodipodi.sourceforge.net/DTD/sodipodi-0.dtd"
   xmlns:inkscape="http://www.inkscape.org/namespaces/inkscape"
   id="svg2"
   version="1.1"
   inkscape:version="0.48.2 r9819"
   width="100"
   height="100"
   xml:space="preserve"
   sodipodi:docname="track-placeholder-grid.pdf"><metadata
     id="metadata8"><rdf:RDF><cc:Work
         rdf:about=""><dc:format>image/svg+xml</dc:format><dc:type
           rdf:resource="http://purl.org/dc/dcmitype/StillImage" /><dc:title></dc:title></cc:Work></rdf:RDF></metadata><defs
     id="defs6" /><sodipodi:namedview
     pagecolor="#ffffff"
     bordercolor="#666666"
     borderopacity="1"
     objecttolerance="10"
     gridtolerance="10"
     guidetolerance="10"
     inkscape:pageopacity="0"
     inkscape:pageshadow="2"
     inkscape:window-width="640"
     inkscape:window-height="480"
     id="namedview4"
     showgrid="false"
     inkscape:zoom="2.87625"
     inkscape:cx="50"
     inkscape:cy="50"
     inkscape:window-x="0"
     inkscape:window-y="0"
     inkscape:window-maximized="0"
     inkscape:current-layer="g10" /><g
     id="g10"
     inkscape:groupmode="layer"
     inkscape:label="track-placeholder-grid"
     transform="matrix(1.25,0,0,-1.25,0,100)"><g
       id="g12" /><g
       id="g14"><path
         d="M 0,0 80,0 80,80 0,80 0,0 z m 16.875,15.95375 c -1.15875,1.7176 -1.29938,4.0147 -0.39,6.3023 0.81375,2.0444 2.38875,3.952 4.44937,5.377 2.08876,1.4459 4.45313,2.2439 6.65813,2.2439 0.41062,0 0.79875,-0.038 1.18125,-0.0912 -0.0056,4.0489 -0.01312,8.09209 -0.02438,12.1258 -0.01125,4.9362 -0.02062,9.861 -0.02062,14.7782 0,0.8721 0.56062,1.6435 1.38375,1.9 l 27.74438,8.683 c 0.60187,0.1862 1.245,0.0779 1.74562,-0.2983 0.49875,-0.3743 0.795,-0.969 0.795,-1.5998 l 0,-0.9709 c 0.01125,-0.0665 0.01125,-0.133 0.01125,-0.2033 l 0,-30.267 c 0.5175,-1.2274 0.53625,-2.6752 0.14438,-4.1553 -0.09188,-0.6232 -0.25688,-1.254 -0.50813,-1.8867 -0.81375,-2.0444 -2.39437,-3.9539 -4.45125,-5.377 -2.08875,-1.4478 -4.45687,-2.2439 -6.65625,-2.2439 -2.4225,0 -4.39687,0.9443 -5.55562,2.6619 -1.15501,1.7176 -1.29938,4.0147 -0.39001,6.3004 0.81188,2.04439 2.3925,3.9558 4.45313,5.3789 2.085,1.4459 4.45313,2.242 6.65625,2.242 0.23062,0 0.45375,-0.0152 0.67312,-0.0342 0.16125,0.0228 0.32251,0.0513 0.48375,0.06079 l 0,20.09441 -21.32812,-6.67281 0,-23.93619 c 1.12312,-2.6657 -0.01688,-6.3574 -2.91,-9.2112 -0.10313,-0.1026 -0.21,-0.1919 -0.315,-0.2888 -0.12563,-0.1178 -0.25313,-0.2337 -0.38438,-0.3477 -0.12562,-0.1064 -0.26062,-0.2071 -0.38625,-0.3097 -0.28125,-0.2261 -0.54375,-0.4655 -0.84562,-0.6726 -2.09437,-1.4478 -4.45688,-2.2439 -6.66188,-2.2439 -2.42249,0 -4.395,0.9443 -5.55187,2.6619 z"
         style="fill:#a8b5d0;fill-opacity:1;fill-rule:evenodd;stroke:none"
         id="path16" /></g></g></svg>
